src/assets/duotone/TicketStar.svg

<svg width="24" height="24" viewBox="0 0 24 24"  xmlns="http://www.w3.org/2000/svg">
<path opacity="0.4" d="M22 9.20999V14.79C22 18.89 20.75 20.14 16.65 20.14H9.90996V17.12C9.90996 16.74 9.58996 16.42 9.20996 16.42V7.57999C9.58996 7.57999 9.90996 7.25999 9.90996 6.87999V3.85999H16.65C20.75 3.85999 22 5.10999 22 9.20999Z" />
<path d="M18.4702 11.9C18.6402 11.74 18.7002 11.49 18.6302 11.27C18.5602 11.04 18.3702 10.88 18.1302 10.85L16.8502 10.66C16.8002 10.65 16.7602 10.62 16.7402 10.58L16.1702 9.42002C16.0702 9.21002 15.8502 9.08002 15.6202 9.08002C15.3802 9.08002 15.1702 9.21002 15.0602 9.42002L14.4902 10.58C14.4702 10.63 14.4202 10.66 14.3702 10.66L13.0902 10.85C12.8602 10.88 12.6602 11.05 12.5902 11.27C12.5202 11.5 12.5802 11.74 12.7502 11.9L13.6802 12.8C13.7202 12.83 13.7302 12.89 13.7202 12.94L13.5002 14.21C13.4602 14.44 13.5502 14.68 13.7502 14.81C13.8602 14.89 13.9802 14.93 14.1102 14.93C14.2102 14.93 14.3102 14.91 14.4002 14.86L15.5502 14.26C15.5902 14.24 15.6502 14.24 15.6902 14.26L16.8402 14.86C17.0502 14.97 17.3002 14.95 17.4902 14.81C17.6802 14.67 17.7802 14.44 17.7402 14.2L17.5202 12.93C17.5102 12.88 17.5302 12.83 17.5602 12.79L18.4702 11.9Z" />
<path d="M9.21012 7.57999V16.42C8.83012 16.42 8.51012 16.74 8.51012 17.12V20.14H7.35012C3.40012 20.14 2.10012 18.96 2.01012 15.28C2.00012 15.09 2.08012 14.91 2.21012 14.78C2.34012 14.64 2.53012 14.57 2.71012 14.57C4.11012 14.57 5.26012 13.42 5.26012 12.01C5.26012 10.6 4.11012 9.43999 2.71012 9.43999C2.51012 9.43999 2.34012 9.36999 2.21012 9.22999C2.08012 9.09999 2.00012 8.90999 2.01012 8.72999C2.10012 5.03999 3.40012 3.85999 7.35012 3.85999H8.51012V6.87999C8.51012 7.26999 8.83012 7.57999 9.21012 7.57999Z" />
</svg>

<?xml version="1.0" encoding="UTF-8"?>
<svg width="24" height="24" viewBox="0 0 24 24" xmlns="http://www.w3.org/2000/svg">
 <path d="m22 9.21v5.58c0 4.1-1.25 5.35-5.35 5.35h-6.74v-3.02c0-0.38-0.32-0.7-0.7-0.7v-8.84c0.38 0 0.7-0.32 0.7-0.7v-3.02h6.74c4.1 0 5.35 1.25 5.35 5.35z" opacity=".4"/>
 <path d="m18.47 11.9c0.17-0.16 0.23-0.41 0.16-0.63-0.07-0.23-0.26-0.39-0.5-0.42l-1.28-0.19c-0.05-0.01-0.09-0.04-0.11-0.08l-0.57-1.16c-0.1-0.21-0.32-0.34-0.55-0.34-0.24 0-0.45 0.13-0.56 0.34l-0.57 1.16c-0.02 0.05-0.07 0.08-0.12 0.08l-1.28 0.19c-0.23 0.03-0.43 0.2-0.5 0.42-0.07 0.23-0.01 0.47 0.16 0.63l0.93 0.9c0.04 0.03 0.05 0.09 0.04 0.14l-0.22 1.27c-0.04 0.23 0.05 0.47 0.25 0.6 0.11 0.08 0.23 0.12 0.36 0.12 0.1 0 0.2-0.02 0.29-0.07l1.15-0.6c0.04-0.02 0.1-0.02 0.14 0l1.15 0.6c0.21 0.11 0.46 0.09 0.65-0.05s0.29-0.37 0.25-0.61l-0.22-1.27c-0.01-0.05 0.01-0.1 0.04-0.14l0.91-0.89z"/>
 <path d="m9.2101 7.58v8.84c-0.38 0-0.7 0.32-0.7 0.7v3.02h-1.16c-3.95 0-5.25-1.18-5.34-4.86-0.01-0.19 0.07-0.37 0.2-0.5 0.13-0.14 0.32-0.21 0.5-0.21 1.4 0 2.55-1.15 2.55-2.56s-1.15-2.57-2.55-2.57c-0.2 0-0.37-0.07-0.5-0.21-0.13-0.13-0.21-0.32-0.2-0.5 0.09-3.69 1.39-4.87 5.34-4.87h1.16v3.02c0 0.39 0.32 0.7 0.7 0.7z"/>
</svg>
